.icons/oomox-ad/16x16/apps/bluegriffon.svg

<svg xmlns="http://www.w3.org/2000/svg" width="16" height="16" version="1.1">
 <path style="fill:#7767c0" d="m12.081546 1.0010472c-0.10658 0.00814-0.200994 0.063819-0.284701 0.1699833-0.09453 0.1198887-0.14219 0.2817405-0.128309 0.4252486 0.02051 0.2120518 0.07999 0.3869646 0.322699 0.8951694 0.133395 0.2793209 0.177049 0.3911221 0.223026 0.6149571 0.06493 0.3161143 0.09077 0.5931419 0.09031 0.960146-0.000513 0.3379734-0.01999 0.5840409-0.07104 0.9050319-0.04481 0.2818247-0.121549 0.6206178-0.13767 0.614957-0.0246-0.00864-0.05387-0.7710345-0.07599-1.1544959-0.02604-0.451498-0.04793-0.6325214-0.08536-0.810468-0.09958-0.4734444-0.321191-0.6734725-0.688352-0.6149571-0.103016 0.01642-0.269235 0.069587-0.284702 0.089922-0.0066 0.0087 0.03025 0.1465659 0.132715 0.4554164 0.0805 0.2426622 0.147026 0.4452139 0.147032 0.4496159 0.000019 0.01528-0.05846 0.036518-0.07104 0.025527-0.0065-0.00565-0.06474-0.093012-0.128309-0.190288-0.134145-0.2052766-0.202191-0.3051056-0.294065-0.4200274-0.247142-0.3091482-0.514551-0.4567524-0.7924297-0.4397526-0.1014035 0.00621-0.2542306 0.041341-0.2802962 0.064977-0.018078 0.016391-0.313552 0.043824 0.032343 1.3697303l0.2925929 1.5882599v2.007529c-0.0075 0.022065-0.116113 0.024942-0.259002 0.024942-0.080366 0-0.2433142-0.00624-0.3606951-0.015087-0.259361-0.0195775-0.2833627 0.0227139-0.3935912 0.0394891-0.1120524 0.0170829-0.2746002 0.0598901-0.4267777 0.1148697-0.4752695 0.1717231-0.8914869 0.3750037-1.2390335 0.8098027-0.3203359 0.400758-0.5919204 0.9111166-0.8590618 1.6151305-0.0801782 0.211303-0.2532046 0.717923-0.2940648 0.855139-0.1010839 0.339473-0.1572079 0.699853-0.1663055 1.090099-0.0081 0.347572 0.016894 0.633286 0.085356 0.924757 0.080313 0.341908 0.2001341 0.606851 0.3656525 0.830191 0.039622 0.05347 0.082474 0.100937 0.1283087 0.15026 0.00158 0.0019 0.00284 0.0029 0.00442 0.0047 0.00134 0.0016 0.00347 0.0036 0.00497 0.0052 0.0008684 0.000915-0.0008684 0.0036 0 0.0047 0.2130699 0.22506 0.4446493 0.45662 0.7401161 0.520053 0.2111752 0.04535 0.5793169 0.05318 0.5793169 0.01045 0-0.0072-0.064135-0.308203-0.1426261-0.545001-0.078495-0.236797-0.1420491-0.434324-0.1420767-0.440331-0.0000552-0.01051 0.039165-0.03482 0.056722-0.03482 0.00466 0 0.054172 0.07225 0.1090351 0.160121 0.2208721 0.353702 0.391158 0.55626 0.584273 0.695017 0.1146632 0.0824 0.2649058 0.145458 0.3843751 0.164762 0.07379 0.01191 0.2499932 0.01088 0.3226996-0.0052 0.089758-0.01986 0.1789587-0.05097 0.1899853-0.06498l-0.5699514-0.985174c0.3736299 0.30641 0.863845 0.602943 1.2103975 0.705461 0.434009 0.128387 0.843294 0.06567 1.153678-0.180426 0.09822-0.07788 0.199539-0.183106 0.194389-0.199571-0.0024-0.0076-0.363161-0.169092-0.802341-0.360274-0.439179-0.191179-0.7997425-0.353187-0.801793-0.359691-0.00592-0.01862 0.3403592 0.0024 0.716437 0.04468 0.120402 0.01353 0.316286 0.03631 0.43669 0.04989 0.387183 0.04365 0.474179 0.05005 0.740667 0.04989 0.282914-0.00016 0.406774-0.01205 0.621719-0.05976 0.334821-0.0743 0.693221-0.252186 0.98682-0.485004 0.119536-0.09479 0.178279-0.152797 0.171262-0.164763-0.0038-0.0066-0.474656-0.0048-1.386065 0-0.938281 0.005-1.365218 0.0016-1.381109-0.0052-0.0026-0.000458-0.0079 0.000713-0.0094 0-0.0061-0.01029 0.09391-0.298588 0.109035-0.31502 0.0043-0.0047 0.03949 0.0073 0.07599 0.03017 0.632014 0.395563 1.993019 0.293576 2.980287-0.225098 0.283294-0.148833 0.470182-0.289244 0.655311-0.485004 0.221447-0.234163 0.35197-0.489999 0.370059-0.735048 0.0053-0.07227 0.0029-0.07483-0.01432-0.07483-0.02107 0-0.365604 0.09915-0.550131 0.15954-0.06805 0.02227-0.242753 0.08109-0.389332 0.129954-0.957421 0.319165-1.354945 0.405154-1.87507 0.415386-0.297292 0.0059-0.563636-0.01303-0.555087-0.04003 0.0097-0.03054 0.414123-0.176903 0.688352-0.250044 0.234103-0.06244 0.356984-0.08896 0.901466-0.204793 0.804884-0.171232 1.096902-0.250969 1.452697-0.400303 0.750381-0.314946 1.425949-0.661193 1.559937-1.4081557 0.03487-0.1943296 0.03359-0.5348965 0.03359-0.5348965-0.000544-0.00457-0.640229 0.061841-1.10948 0.3377841-0.469284 0.2758905-0.858338 0.4990934-0.864019 0.4953934-0.013-0.00842-0.06807-0.138305-0.06168-0.1450365 0.0026-0.0027 0.06274-0.037572 0.13767-0.080061 0.359875-0.2040698 0.633226-0.4187715 0.930101-0.7304063 0.554814-0.5823998 0.879505-1.2547053 0.958737-1.9748265 0.012491-0.2929583-0.214647-0.5853933-0.351069-0.9543638-0.0054-0.0019-0.14155 0.2070268-0.541038 0.8290507-0.841235 1.3098523-0.885482 1.377289-0.892104 1.3703128-0.01512-0.015917 0.185228-0.3894572 0.522049-0.9798695 0.145801-0.2556218 0.302503-0.532255 0.346363-0.6149807 0.10791-0.2035343 0.25971-0.541266 0.317744-0.7002393 0.20387-0.5584682 0.133017-0.7324289-0.0093-1.1849813-0.04128-0.1314158-0.14049-0.3454406-0.218032-0.4699197-0.07688-0.1234186-0.192333-0.2791931-0.204303-0.2749901-0.438092 1.1040054-1.010906 2.4165126-1.613559 3.4997871-0.697776 1.2567103-0.728465 1.3176075-0.73571 1.3099759-0.0058-0.00607 0.05791-0.1943368 0.123353-0.3649138 0.163689-0.4267041 0.331608-0.766515 0.79243-1.6000505 0.294311-0.5323461 0.426719-0.7813839 0.545725-1.0297635 0.370731-0.7737487 0.549566-1.3985751 0.593635-2.0804126 0.0089-0.138581 0.009-0.2044675 0-0.2947154-0.04659-0.4707598-0.204317-0.657607-0.370609-0.9856494-0.09662-0.1905901-0.221526-0.3425453-0.33206-0.3997222-0.05003-0.025871-0.06653-0.030168-0.147032-0.030168-0.08297 0-0.09789 0.00344-0.16135 0.034813-0.154877 0.076472-0.199443 0.1967095-0.199346 0.5053095 0.000045 0.1654962 0.01209 0.2946992 0.06167 0.6648501l0.03305 0.2599062-0.0044 0.2952958c-0.0053 0.2926753-0.0094-0.012652-0.03799 0.2604636-0.06305 0.6006996-0.218095 1.2913274-0.446602 2.0247182-0.08621 0.2766682-0.213277 0.66191-0.227433 0.6851558-0.03307 0.054301 0.04861-0.3427509 0.213665-1.0552903 0.270722-1.1685892 0.335188-1.5855281 0.346397-2.1749761 0.0077-0.4079148-0.01838-0.6895424-0.09031-1.019901-0.04314-0.1980146-0.06007-0.2499222-0.12338-0.385221-0.177491-0.3793089-0.48752-0.7807396-0.740666-0.9549247-0.130492-0.089787-0.24916-0.12823893-0.35574-0.1200901z"/>
 <path style="fill:#d54c41" d="m5.3428918 7.0037123c-0.3983379 0.0466354-0.7914727 0.1358136-1.1702146 0.2610455-0.3924971 0.1354868-0.7842607 0.3140478-1.0742323 0.6052451-0.021408 0.034337-0.1313119 0.1112577-0.088729 0.1299971 0.4264803-0.1087611 1.0255116-0.2660054 1.4302631-0.3742007 0.1096886-0.0293197 0.1927693-0.0517735 0.2885076-0.077366 0.1752782-0.0449453 0.3497644-0.0926351 0.5240026-0.1410482l0.1238847-0.036314c0.038992-0.043202 0.016648-0.1726775 0.022328-0.2478878-0.01188-0.039717 0.023992-0.1440873-0.055808-0.1194704z"/>
 <path style="fill:#4f4f4f" d="m2.0519867 8.0022742c-0.1061507 0.0068-0.2429612 0.040492-0.3290145 0.082742-0.2455629 0.1205686-0.3898449 0.3393886-0.4579536 0.6849198-0.039853 0.2021897-0.046575 0.3130015-0.048905 0.850403-0.00133 0.2803513-0.0054 0.511269-0.00889 0.514838-0.00355 0.0036-0.016321-0.0053-0.031127-0.02299-0.0554297-0.066466-0.1266628-0.1849727-0.22675448-0.3907181-0.0368727-0.0757854-0.0666313-0.126096-0.0978147-0.1838706-0.0168021-0.031126-0.0401341-0.0873885-0.0489122-0.1011285-0.0543108-0.0850785-0.1543721-0.192046-0.2223071-0.2390331-0.0580971-0.040186-0.1457233-0.073545-0.2045222-0.073545-0.1698259 0-0.3195309 0.1608443-0.3645842 0.3907255-0.0432991 0.2209313 0.04094 0.4041331 0.217861 0.473467 0.02896 0.011354 0.073864 0.01662 0.1600613 0.018379 0.065677 0.0013 0.1255092 0.0051 0.1289383 0.0092 0.0034 0.0041 0.017667 0.04219 0.031127 0.08274 0.039365 0.118649 0.1348308 0.313433 0.2801074 0.565403 0.1535024 0.266239 0.25151228 0.4601 0.29344568 0.579193 0.044956 0.127688 0.2558747 0.969781 0.2845527 1.135404 0.024952 0.144121 0.031459 0.275687 0.017778 0.344758-0.00599 0.03042-0.03356 0.117269-0.062246 0.188468-0.079586 0.19753-0.085608 0.271554-0.031127 0.427497 0.1083855 0.310229 0.299012 0.520988 0.5735524 0.638954 0.069456 0.02984 0.081126 0.03157 0.097815-0.0092 0.03739-0.09133 0.085731-0.289955 0.1022608-0.4275 0.027059-0.225174 0.00717-0.385369-0.1067076-0.905565-0.052698-0.240676-0.094088-0.533225-0.075585-0.533225 0.00436 0.000006 0.038832 0.0241 0.075585 0.05517 0.036755 0.03106 0.1584018 0.131722 0.2712148 0.220645 0.2944314 0.232076 0.3308878 0.263508 0.666921 0.606775 0.1269868 0.129718 0.2187699 0.217194 0.2978923 0.289595 0.1573605 0.143988 0.2514421 0.206156 0.3823699 0.252823 0.070543 0.02515 0.09968 0.03209 0.1600604 0.03218 0.1473777 0.000148 0.2145258-0.06351 0.222307-0.21145 0.00547-0.104407-0.025336-0.224597-0.1067075-0.395297-0.0795657-0.166916-0.1433491-0.25445-0.2667706-0.37694-0.1436297-0.142543-0.2768943-0.2434-0.7069374-0.528628-0.3661276-0.242836-0.5293407-0.367438-0.6713678-0.514839-0.1871862-0.194266-0.2666837-0.35544-0.2756615-0.565403-0.0074045-0.172846 0.0342031-0.28311 0.1422764-0.395321 0.1108066-0.115051 0.2330937-0.179081 0.5913379-0.307984 0.3785108-0.136196 0.5196581-0.221765 0.5824452-0.3539516 0.0218455-0.0460085 0.0222523-0.0607554 0.0222301-0.1379024-0.0000207-0.0741355 0.0000318-0.093593-0.0177782-0.1287102-0.0824651-0.1625516-0.3306533-0.2604649-0.7336144-0.2850079l-0.1022607-0.0045875-0.3423533 0.353952c-0.1881299 0.1942595-0.3439677 0.3476816-0.3467993 0.3447576-0.0028842-0.00296 0.0790941-0.456518 0.1822921-1.0112898 0.1031962-0.5547734 0.1911849-1.0156947 0.1911849-1.0250799 0-0.015819-0.00831-0.018977-0.088923-0.013785z"/>
 <g transform="matrix(.95833054 0 0 .97042174 -.62172702 -.10893924)">
  <path style="fill:#4f4f4f" d="m8.5613157 4.2344746c-0.093141 0.00114-0.1927886 0.00951-0.2501069 0.019234-0.3608044 0.061246-0.6485376 0.1940519-0.7984151 0.3751587-0.1173638 0.1418205-0.150439 0.3191874-0.091385 0.490593 0.00776 0.022766 0.013416 0.044286 0.00962 0.048097-0.00384 0.00383-0.3577171 0.041731-0.7839854 0.086575-0.3479636 0.036606-0.5386522 0.062819-0.6396945 0.076956-0.013664 0.00194-0.080526 0.00849-0.086575 0.00962-0.004 0.0007429-0.057328 0.0044-0.05772 0.0048-0.00088 0.000912 0.00464 0.015326 0.0048 0.019234 0.0003144 0.0056-0.00104 0.00861 0 0.00962 0.00392 0.031783 0.018952 0.1001211 0.05772 0.235677 0.068608 0.2397974 0.08275 0.8035461 0.072144 0.8035461-0.00232 0-0.038128-0.025056-0.076952-0.052912-0.1604254-0.1150797-0.305662-0.067884-0.4617346-0.075176-0.1723214-0.00805-0.2813573 0.038823-0.4040163 0.1587216-0.00264 0.00257-0.00696 0.00217-0.00962 0.0048-0.061528 0.061616-0.084718 0.090274-0.1250527 0.1731494-0.058768 0.1207535-0.088162 0.1252056-0.096196 0.2675654-0.00938 0.1662902 0.027232 0.3766813 0.086576 0.5146411l0.019232 0.048096h0.081766c0.2128646 0 0.3802884-0.2724181 0.5579242-0.3559062 0.123807-0.030568 0.3514123-0.030472 0.505021 0 0.5535233 0.1098057 0.9684292-0.029414 0.9475172 0.3459811-0.0056 0.1000991-0.041112 0.165731-0.129863 0.2549149-0.073984 0.0743435-0.170635 0.1402457-0.3366812 0.2308672-0.058352 0.031848-0.1554302 0.086837-0.2164374 0.1202431-0.061008 0.033408-0.1480382 0.086064-0.1923893 0.1154342-0.087874 0.058192-0.197199 0.1548174-0.197199 0.1779598 0 0.019936 0.054536 0.019176 0.2885837-0.0048 0.100383-0.010304 0.1828189-0.026128 0.2693452-0.038472 0.4196859-0.059912 0.699756-0.1411815 0.9186582-0.2837749 0.2080629-0.135531 0.3645259-0.350726 0.4232562-0.5771665 0.00953-0.036752 0.018312-0.062528 0.024048-0.062528 0.00576 0 0.043696 0.019592 0.081766 0.043288 0.2470789 0.1537614 0.4502555 0.2091622 0.6204553 0.1731502 0.1521166-0.032184 0.298526-0.123775 0.5675481-0.3559204 0.07134-0.06156 0.133295-0.1154334 0.139482-0.1154334 0.0062 0 0.06224 0.1227014 0.125053 0.2693453 0.06282 0.1466438 0.1221813 0.9958002 0.1303693 1.0056082 0.1811884 0.026832 0.2694245-0.00595 0.4997043-0.039163 0.09918-0.6542457 0.03583-1.5299177-0.01914-2.0346102-0.0909104-0.0588079-0.8610386-0.0562889-0.8610386-0.0562889-0.2000016 0.1587424-0.3629856 0.2623948-0.476167 0.1865613-0.1121231-0.0751279-0.2205934-0.1746942-0.2068182-0.1875798 0.00528-0.00496 0.044136-0.018944 0.086575-0.033672 0.3380348-0.1172991 0.5695482-0.3397412 0.7214592-0.6974106 0.0625-0.147173 0.113321-0.335278 0.197199-0.7070306 0.03806-0.1686639 0.08735-0.359125 0.105814-0.4232558 0.01846-0.064131 0.03167-0.1225359 0.02886-0.1298634-0.000314-0.000856-0.0113 0.00411-0.01442 0.0048-0.03361 0.00731-0.22607 0.096185-0.697411 0.3318719-0.3879067 0.1939725-0.711516 0.3528188-0.7166416 0.3511103-0.00512-0.00166 0.1186447-0.1140556 0.2741549-0.2501058 0.1555118-0.1360514 0.2958797-0.258093 0.3078221-0.269345 0.00768-0.00723 0.0064-0.014542 0.00962-0.024046 0.00488-0.014263 0.00962-0.03352 0.00962-0.076955 0-0.080173-0.00288-0.085344-0.028864-0.096195-0.02104-0.00878-0.1040591-0.010737-0.197199-0.00962z"/>
  <path style="fill:#d54c41" d="m6.483075 5.8618256s0.2141317-0.1493024 0.4076723-0.1414372c0.2255789 0.00917 0.3743939 0.2079956 0.3743939 0.2079956-0.4991914 0.3078348-0.7820662-0.06656-0.7820662-0.06656z"/>
 </g>
 <path d="m5.4531266 5.6691507c-0.1685502-0.00657-0.2773397 0.038994-0.3984379 0.1573662 0.1210982-0.1183731 0.2298877-0.1639325 0.3984379-0.1573662z"/>
 <path d="m7.4040179 4.852187c-0.00664 0.032189-0.00672 0.065143-0.00672 0.098214-0.0002112-0.033 0.000308-0.066097 0.00672-0.098214z"/>
 <path d="m7.3950899 4.9771871c0.00216 0.038869 0.010864 0.078201 0.02232 0.1171874-0.011472-0.03904-0.019968-0.078277-0.02232-0.1171874z"/>
 <path d="m3.1986629 8.7874544c-0.00893-0.0006288-0.015488-0.0028-0.024552-0.00336h-0.00893c0.012368 0.0007432 0.021392 0.00248 0.03348 0.00336z"/>
 <path d="m2.6216548 7.3666945c-0.057208 0.00392-0.1218743 0.013712-0.1841526 0.029016 0.06212-0.015056 0.1270406-0.025152 0.1841526-0.029016z"/>
 <path style="fill:#ffff00" d="m6.9437552 7.3421881c-0.00168 0.044024-0.0003632 0.096291-0.0016 0.146875 0.00136-0.050272-0.0000816-0.102911 0.0016-0.146875z"/>
</svg>

<svg xmlns="http://www.w3.org/2000/svg" width="16" height="16" version="1.1">
 <path style="fill:#4f4f4f" d="M 7.5828,4.0003 C 7.4936,4.0013 7.3981,4.0095 7.3431,4.0189 6.9974,4.0784 6.7217,4.2073 6.578,4.383 6.4655,4.5206 6.4339,4.6928 6.4904,4.8591 L 6.4996,4.9058 C 6.4996,4.9058 4.9973,5.078 4.9971,5.0784 4.9962,5.0793 5.057,5.3351 5.057,5.3351 5.1227,5.5678 5.1362,6.1149 5.126,6.1149 5.1238,6.1149 5.0895,6.0905 5.0524,6.0636 4.8985,5.9519 4.7594,5.9977 4.6098,5.9906 4.4447,5.9827 4.3402,6.0282 4.2226,6.1446 4.2201,6.1471 4.216,6.1467 4.2134,6.1493 4.1545,6.209 4.1323,6.2369 4.0935,6.3173 4.0373,6.4345 4.0091,6.4388 4.0013,6.5769 3.9924,6.7383 4.0275,6.9425 4.0843,7.0764 L 4.1028,7.1231 H 4.1811 C 4.3852,7.1231 4.5456,6.8587 4.7158,6.7777 4.8345,6.748 5.0526,6.7481 5.1998,6.7777 5.7303,6.8843 6.1279,6.7492 6.1079,7.1134 6.1025,7.2105 6.0685,7.2743 5.9834,7.3608 5.9125,7.4329 5.8199,7.4969 5.6607,7.5848 5.6048,7.6158 5.5118,7.6691 5.4533,7.7015 5.3949,7.734 5.3115,7.785 5.2689,7.8135 5.1847,7.87 5.08,7.9637 5.08,7.9863 5.08,8.0056 5.1322,8.0048 5.3565,7.9816 5.4527,7.9716 5.5317,7.9562 5.6146,7.9442 6.0168,7.8861 6.2852,7.8072 6.495,7.6688 6.6944,7.5373 6.8443,7.3285 6.9007,7.1088 6.9098,7.0731 6.9237,7.0481 6.9237,7.0481 6.9237,7.0481 6.9656,7.0671 7.0021,7.0901 7.2388,7.2393 7.4335,7.2931 7.5966,7.2582 7.7424,7.2269 7.8828,7.138 8.1406,6.9127 L 8.2743,6.8007 8.394,7.0621 C 8.4542,7.2044 8.519,8.038 8.519,8.038 8.6927,8.064 8.7772,8.0322 8.998,7.9999 9.0929,7.3651 9.0325,6.5153 8.9798,6.0255 8.8924,5.9685 8.1544,5.9709 8.1544,5.9709 7.9627,6.1249 7.8065,6.2255 7.698,6.152 7.5906,6.079 7.4998,5.9699 7.4998,5.9699 7.5049,5.9651 7.5828,5.9372 7.5828,5.9372 7.9067,5.8234 8.1286,5.6076 8.2743,5.2605 8.3342,5.1176 8.4632,4.5744 8.4632,4.5744 L 8.5922,4.0375 7.2234,4.705 7.486,4.4623 7.781,4.2009 7.7902,4.1776 C 7.7902,4.1776 7.7995,4.1451 7.7995,4.1029 7.7995,4.0251 7.7967,4.0201 7.7718,4.0096 7.7517,4.001 7.672,3.9991 7.5828,4.0003 Z M 2.052,8.0022 C 1.9458,8.009 1.809,8.0427 1.723,8.0849 1.4774,8.2055 1.3331,8.4243 1.265,8.7698 1.2252,8.972 1.2184,9.0828 1.2161,9.6202 L 1.2072,10.135 0.80262,9.4364 C 0.7483,9.3513 0.64824,9.2443 0.58031,9.1973 0.58031,9.1973 0.50099,9.1238 0.37579,9.1238 0.20596,9.1238 0.05626,9.2846 0.0112,9.5145 -0.0321,9.7354 0.05214,9.9187 0.22906,9.988 0.28926,10.023 0.51806,10.016 0.51806,10.016 L 0.54919,10.098 C 0.58855,10.217 0.68402,10.412 0.8293,10.664 0.9828,10.93 1.0808,11.124 1.1227,11.243 1.1677,11.371 1.3786,12.213 1.4073,12.378 1.4322,12.523 1.4251,12.723 1.4251,12.723 1.4251,12.723 1.3915,12.84 1.3628,12.912 1.2832,13.109 1.2772,13.183 1.3317,13.339 1.4401,13.649 1.6307,13.86 1.9053,13.978 1.9747,14.008 1.9864,14.01 2.0031,13.969 2.0405,13.878 2.0888,13.679 2.1053,13.541 2.1324,13.316 2.1125,13.156 1.9986,12.636 1.9459,12.395 1.923,12.103 1.923,12.103 1.923,12.103 2.6007,12.642 2.9368,12.985 L 3.2346,13.275 C 3.392,13.419 3.4861,13.481 3.617,13.528 3.6876,13.553 3.7771,13.56 3.7771,13.56 3.9245,13.56 3.9916,13.496 3.9994,13.348 4.0049,13.244 3.9741,13.124 3.8927,12.953 3.8131,12.786 3.7493,12.699 3.6259,12.576 3.4823,12.434 3.349,12.333 2.919,12.047 2.5528,11.805 2.3896,11.68 2.2476,11.533 2.0604,11.338 1.9809,11.177 1.9719,10.967 1.9645,10.794 2.0061,10.684 2.1142,10.572 2.225,10.457 2.3473,10.393 2.7056,10.264 3.0841,10.128 3.2252,10.042 3.288,9.9099 3.3117,9.8214 3.3147,9.7263 3.2925,9.6433 3.21,9.4807 2.9618,9.3828 2.5588,9.3582 L 2.4566,9.3537 1.7674,10.052 2.1409,8.016 C 2.1409,8.016 2.1326,7.997 2.052,8.0022 Z"/>
 <path style="fill:#7767c0" d="M 12.082,1.0011 C 11.975,1.0093 11.881,1.065 11.797,1.1711 11.702,1.291 11.655,1.4529 11.669,1.5964 11.689,1.8084 11.749,1.9833 11.991,2.4914 12.125,2.7708 12.168,2.8826 12.214,3.1064 12.279,3.4225 12.305,3.6995 12.305,4.0666 12.304,4.4045 12.285,4.6506 12.234,4.9716 12.189,5.2534 12.096,5.5865 12.096,5.5865 12.096,5.5865 11.972,3.7995 11.935,3.6216 11.835,3.1481 11.613,2.9481 11.246,3.0066 L 10.961,3.0965 11.241,4.0016 11.17,4.0271 10.748,3.4168 C 10.501,3.1076 10.233,2.96 9.9554,2.977 L 9.6751,3.042 C 9.6751,3.042 9.3615,3.0858 9.7074,4.4117 L 10,6 V 8.0075 L 9.3803,8.0174 8.9867,8.0569 C 8.9867,8.0569 8.7121,8.1168 8.5599,8.1717 8.0847,8.3435 7.6684,8.5467 7.3209,8.9815 7.0006,9.3823 6.729,9.8927 6.4618,10.597 L 6.1678,11.452 C 6.0667,11.791 6.0106,12.152 6.0015,12.542 5.9934,12.889 6.0184,13.175 6.0868,13.467 6.1671,13.809 6.287,14.074 6.4525,14.297 L 6.5902,14.462 C 6.8032,14.687 7.0348,14.918 7.3303,14.982 7.5415,15.027 7.9215,15.033 7.9096,14.992 L 7.6249,14.007 7.6816,13.972 C 7.6816,13.972 7.7358,14.044 7.7907,14.132 8.0115,14.486 8.1818,14.688 8.3749,14.827 8.4896,14.91 8.6398,14.973 8.7593,14.992 8.8331,15.004 9.0093,15.003 9.082,14.987 9.1718,14.967 9.272,14.922 9.272,14.922 L 8.702,13.937 C 9.0757,14.243 9.5659,14.54 9.9124,14.642 10.346,14.77 10.756,14.708 11.066,14.462 11.164,14.384 11.261,14.262 11.261,14.262 L 9.6564,13.542 C 9.6564,13.542 11.284,13.687 11.55,13.687 11.833,13.686 11.957,13.675 12.172,13.627 12.507,13.553 12.865,13.375 13.159,13.142 13.278,13.047 13.33,12.977 13.33,12.977 L 10.553,12.972 10.662,12.657 10.738,12.687 C 11.37,13.083 12.731,12.981 13.719,12.462 14.002,12.313 14.189,12.173 14.374,11.977 14.595,11.743 14.726,11.487 14.744,11.242 L 14.73,11.167 C 14.73,11.167 13.937,11.408 13.79,11.457 12.833,11.776 12.435,11.862 11.915,11.872 11.618,11.878 11.36,11.832 11.36,11.832 11.36,11.832 11.774,11.655 12.048,11.582 12.283,11.519 12.95,11.377 12.95,11.377 13.755,11.206 14.047,11.126 14.403,10.977 15.153,10.662 15.829,10.316 15.963,9.5686 15.997,9.3742 15.996,9.0337 15.996,9.0337 15.996,9.0337 15.356,9.0955 14.887,9.3715 L 14.023,9.8669 13.961,9.7218 14.099,9.6418 C 14.459,9.4377 14.732,9.223 15.029,8.9114 15.584,8.329 15.908,7.6566 15.988,6.9365 16,6.6436 15.773,6.3511 15.636,5.9822 L 14.203,8.1815 15.072,6.5867 15.389,5.8864 C 15.593,5.328 15.522,5.154 15.38,4.7015 15.339,4.57 15.24,4.356 15.162,4.2315 15.085,4.1081 14.958,3.9565 14.958,3.9565 14.52,5.0606 12.609,8.7663 12.609,8.7663 12.609,8.7663 12.666,8.572 12.732,8.4014 12.968,7.7866 13.951,6.02 14.07,5.7716 14.441,4.9978 14.62,4.373 14.664,3.6912 14.673,3.5526 14.673,3.4867 14.664,3.3965 14.617,2.9257 14.459,2.7388 14.293,2.4108 14.196,2.2202 14.072,2.0683 13.961,2.0111 L 13.814,1.981 13.653,2.0157 C 13.498,2.0922 13.453,2.2124 13.453,2.521 13.453,2.521 13.465,2.8157 13.515,3.1859 L 13.544,3.7411 13.506,4.0016 C 13.443,4.6023 13.288,5.2929 13.059,6.0263 L 12.832,6.7114 13.045,5.6561 C 13.316,4.4875 13.38,4.0706 13.392,3.4812 13.399,3.0732 13.373,2.7916 13.301,2.4613 L 13.178,2.076 C 13,1.6968 12.69,1.2954 12.437,1.1212 12.307,1.0314 12.188,0.9929 12.082,1.0011 Z"/>
 <path style="fill:#d54c41" d="M 5.5912,5.5795 C 5.5912,5.5795 5.7964,5.4346 5.9818,5.4423 6.198,5.4512 6.3406,5.6442 6.3406,5.6442 5.8622,5.9429 5.5912,5.5795 5.5912,5.5795 Z M 5.3429,7.0037 C 4.9446,7.0503 4.5514,7.1395 4.1727,7.2648 3.7802,7.4002 3.3884,7.5788 3.0984,7.87 3.077,7.9043 2.9671,7.9813 3.0097,8 L 5.3764,7.3711 C 5.4154,7.3279 5.4227,6.9791 5.3429,7.0037 Z"/>
</svg>
